dist/img/svg/media__item__logo--6.svg

<svg width="178" height="29" viewBox="0 0 178 29" fill="none" xmlns="http://www.w3.org/2000/svg">
<g clip-path="url(#clip0_7214_14802)">
<path d="M0 0V28H28V0H0ZM10.7546 21.7533L21.7608 10.7512V21.7533H10.7546ZM6.23919 17.4315V6.24672H17.4285L6.23919 17.4315Z" fill="#2A2A2A"/>
</g>
<g clip-path="url(#clip1_7214_14802)">
<path d="M36 0.533381H35.5V1.03338V26.9958V27.4958H36H41.2075H41.7075V26.9958V17.7985H44.5457C47.6604 17.7985 50.1824 17.0513 51.934 15.5857C53.6984 14.1094 54.6178 11.9567 54.6178 9.29112V9.14925V9.14885C54.6156 6.4482 53.685 4.26868 51.9014 2.77405C50.1306 1.29005 47.5814 0.533381 44.433 0.533381H36ZM66.7986 10.7314H63.0508V5.74779H73.8546H74.3546V5.24779V1.03338V0.533381H73.8546H57.3808H56.8808V1.03338V26.9958V27.4958H57.3808H66.7026C69.7514 27.4958 72.2219 26.7587 73.9381 25.311C75.6666 23.8529 76.5661 21.7277 76.5661 19.0969V18.9425C76.5661 16.3423 75.6999 14.261 73.9946 12.8407C72.3038 11.4325 69.8562 10.7314 66.7986 10.7314ZM85.0367 10.8143V1.03338V0.533381H84.5367H79.3292H78.8292V1.03338V26.9958V27.4958H79.3292H84.5367H85.0367V26.9958V16.8979L93.6144 27.3137L93.7644 27.4958H94.0003H100.205H101.271L100.59 26.6762L89.582 13.4369L100.062 1.32719L100.777 0.5H99.6835H93.9669H93.7345L93.5847 0.677669L85.0367 10.8143ZM48.5229 9.29112C48.5229 10.5396 48.1588 11.4164 47.5207 11.989C46.8732 12.57 45.8643 12.9096 44.433 12.9096H41.7075V5.67268H44.433C45.9435 5.67268 46.948 5.97768 47.5733 6.51722C48.1828 7.04311 48.5229 7.87241 48.5229 9.14508V9.29112ZM63.05 22.3941L63.0391 15.6245H66.3813C67.8953 15.6245 68.9228 15.9292 69.5663 16.4552C70.1897 16.9648 70.5339 17.7503 70.5339 18.9175V19.0594C70.5339 20.2315 70.1917 21.0322 69.5859 21.5517C68.9657 22.0835 67.985 22.3941 66.5607 22.3941H63.05Z" fill="#2A2A2A" stroke="#2A2A2A"/>
</g>
<g clip-path="url(#clip2_7214_14802)">
<path d="M37 0.533381H36.5V1.03338V26.9958V27.4958H37H42.2075H42.7075V26.9958V17.7985H45.5457C48.6604 17.7985 51.1824 17.0513 52.934 15.5857C54.6984 14.1094 55.6178 11.9567 55.6178 9.29112V9.14925V9.14885C55.6156 6.4482 54.685 4.26868 52.9014 2.77405C51.1306 1.29005 48.5814 0.533381 45.433 0.533381H37ZM67.7986 10.7314H64.0508V5.74779H74.8546H75.3546V5.24779V1.03338V0.533381H74.8546H58.3808H57.8808V1.03338V26.9958V27.4958H58.3808H67.7026C70.7514 27.4958 73.2219 26.7587 74.9381 25.311C76.6666 23.8529 77.5661 21.7277 77.5661 19.0969V18.9425C77.5661 16.3423 76.6999 14.261 74.9946 12.8407C73.3038 11.4325 70.8562 10.7314 67.7986 10.7314ZM86.0367 10.8143V1.03338V0.533381H85.5367H80.3292H79.8292V1.03338V26.9958V27.4958H80.3292H85.5367H86.0367V26.9958V16.8979L94.6144 27.3137L94.7644 27.4958H95.0003H101.205H102.271L101.59 26.6762L90.582 13.4369L101.062 1.32719L101.777 0.5H100.684H94.9669H94.7345L94.5847 0.677669L86.0367 10.8143ZM49.5229 9.29112C49.5229 10.5396 49.1588 11.4164 48.5207 11.989C47.8732 12.57 46.8643 12.9096 45.433 12.9096H42.7075V5.67268H45.433C46.9435 5.67268 47.948 5.97768 48.5733 6.51722C49.1828 7.04311 49.5229 7.87241 49.5229 9.14508V9.29112ZM64.05 22.3941L64.0391 15.6245H67.3813C68.8953 15.6245 69.9228 15.9292 70.5663 16.4552C71.1897 16.9648 71.5339 17.7503 71.5339 18.9175V19.0594C71.5339 20.2315 71.1917 21.0322 70.5859 21.5517C69.9657 22.0835 68.985 22.3941 67.5607 22.3941H64.05Z" fill="#2A2A2A" stroke="#2A2A2A"/>
</g>
<g clip-path="url(#clip3_7214_14802)">
<path d="M38 0.533381H37.5V1.03338V26.9958V27.4958H38H43.2075H43.7075V26.9958V17.7985H46.5457C49.6604 17.7985 52.1824 17.0513 53.934 15.5857C55.6984 14.1094 56.6178 11.9567 56.6178 9.29112V9.14925V9.14885C56.6156 6.4482 55.685 4.26868 53.9014 2.77405C52.1306 1.29005 49.5814 0.533381 46.433 0.533381H38ZM68.7986 10.7314H65.0508V5.74779H75.8546H76.3546V5.24779V1.03338V0.533381H75.8546H59.3808H58.8808V1.03338V26.9958V27.4958H59.3808H68.7026C71.7514 27.4958 74.2219 26.7587 75.9381 25.311C77.6666 23.8529 78.5661 21.7277 78.5661 19.0969V18.9425C78.5661 16.3423 77.6999 14.261 75.9946 12.8407C74.3038 11.4325 71.8562 10.7314 68.7986 10.7314ZM87.0367 10.8143V1.03338V0.533381H86.5367H81.3292H80.8292V1.03338V26.9958V27.4958H81.3292H86.5367H87.0367V26.9958V16.8979L95.6144 27.3137L95.7644 27.4958H96.0003H102.205H103.271L102.59 26.6762L91.582 13.4369L102.062 1.32719L102.777 0.5H101.684H95.9669H95.7345L95.5847 0.677669L87.0367 10.8143ZM50.5229 9.29112C50.5229 10.5396 50.1588 11.4164 49.5207 11.989C48.8732 12.57 47.8643 12.9096 46.433 12.9096H43.7075V5.67268H46.433C47.9435 5.67268 48.948 5.97768 49.5733 6.51722C50.1828 7.04311 50.5229 7.87241 50.5229 9.14508V9.29112ZM65.05 22.3941L65.0391 15.6245H68.3813C69.8953 15.6245 70.9228 15.9292 71.5663 16.4552C72.1897 16.9648 72.5339 17.7503 72.5339 18.9175V19.0594C72.5339 20.2315 72.1917 21.0322 71.5859 21.5517C70.9657 22.0835 69.985 22.3941 68.5607 22.3941H65.05Z" fill="#2A2A2A" stroke="#2A2A2A"/>
</g>
<g clip-path="url(#clip4_7214_14802)">
<path d="M114 0H124.638C132.297 0 135.861 3.40863 135.861 9.35876V9.51846C135.861 15.3923 131.909 18.5651 124.995 18.5651H121.986V28H114.007V0H114ZM124.281 13.0793C126.864 13.0793 128.232 11.8619 128.232 9.55643V9.39673C128.232 7.00762 126.826 6.03372 124.318 6.03372H121.971V13.0793H124.281Z" fill="#2A2A2A"/>
<path d="M139 7.41038H146.083V11.5301C147.39 8.4422 149.566 7.0947 152.773 7.13312V13.7478C148.459 13.6323 146.083 14.9798 146.083 18.3066V28.1323H139V7.41038Z" fill="#2A2A2A"/>
<path d="M155 18.1942V17.8741C155 11.1421 159.953 6.89355 166.363 6.89355C172.735 6.89355 177.649 11.0172 177.649 17.671V17.9912C177.649 24.8012 172.696 28.8936 166.324 28.8936C159.953 28.8936 155 24.9653 155 18.1942ZM170.442 18.0693V17.7491C170.442 14.2191 169.054 12.2589 166.363 12.2589C163.712 12.2589 162.245 14.141 162.245 17.671V17.9912C162.245 21.5993 163.634 23.5595 166.363 23.5595C169.015 23.5595 170.442 21.5603 170.442 18.0693Z" fill="#2A2A2A"/>
</g>
<defs>
<clipPath id="clip0_7214_14802">
<rect width="28" height="28" fill="white"/>
</clipPath>
<clipPath id="clip1_7214_14802">
<rect width="21" height="28" fill="white" transform="translate(35)"/>
</clipPath>
<clipPath id="clip2_7214_14802">
<rect width="22" height="28" fill="white" transform="translate(57)"/>
</clipPath>
<clipPath id="clip3_7214_14802">
<rect width="25" height="28" fill="white" transform="translate(80)"/>
</clipPath>
<clipPath id="clip4_7214_14802">
<rect width="64" height="29" fill="white" transform="translate(114)"/>
</clipPath>
</defs>
</svg>

<svg width="178" height="29" viewBox="0 0 178 29" fill="none" xmlns="http://www.w3.org/2000/svg"><g clip-path="url(#clip0_7214_14802)"><path d="M0 0v28h28V0H0zm10.755 21.753L21.76 10.751v11.002H10.755zm-4.516-4.322V6.248h11.19L6.239 17.43z" fill="#2A2A2A"/></g><g clip-path="url(#clip1_7214_14802)"><path d="M36 .533h-.5v26.963h6.208v-9.697h2.838c3.114 0 5.636-.748 7.388-2.213 1.764-1.477 2.684-3.63 2.684-6.295V9.15v0c-.002-2.7-.933-4.88-2.717-6.375-1.77-1.484-4.32-2.24-7.468-2.24H36zm30.799 10.198H63.05V5.748h11.304V.533H56.88v26.963h9.822c3.048 0 5.519-.737 7.235-2.185 1.729-1.458 2.628-3.583 2.628-6.214v-.155c0-2.6-.866-4.681-2.571-6.101-1.691-1.409-4.139-2.11-7.196-2.11zm18.238.083V.534h-6.208v26.962h6.208V16.898l8.577 10.416.15.182h7.507l-.681-.82-11.008-13.24 10.48-12.109.715-.827h-7.043l-.15.178-8.547 10.136zM48.523 9.291c0 1.249-.364 2.125-1.002 2.698-.648.581-1.657.92-3.088.92h-2.725V5.674h2.725c1.51 0 2.515.305 3.14.844.61.526.95 1.355.95 2.628v.146zM63.05 22.394l-.01-6.77h3.341c1.514 0 2.542.305 3.185.831.624.51.968 1.295.968 2.463v.141c0 1.172-.342 1.973-.948 2.493-.62.532-1.601.842-3.025.842H63.05z" fill="#2A2A2A" stroke="#2A2A2A"/></g><g clip-path="url(#clip2_7214_14802)"><path d="M37 .533h-.5v26.963h6.208v-9.697h2.838c3.114 0 5.636-.748 7.388-2.213 1.764-1.477 2.684-3.63 2.684-6.295V9.15v0c-.002-2.7-.933-4.88-2.717-6.375-1.77-1.484-4.32-2.24-7.468-2.24H37zm30.799 10.198H64.05V5.748h11.304V.533H57.88v26.963h9.822c3.048 0 5.519-.737 7.235-2.185 1.729-1.458 2.628-3.583 2.628-6.214v-.155c0-2.6-.866-4.681-2.571-6.101-1.691-1.409-4.139-2.11-7.196-2.11zm18.238.083V.534h-6.208v26.962h6.208V16.898l8.577 10.416.15.182h7.507l-.681-.82-11.008-13.24 10.48-12.109.715-.827h-7.043l-.15.178-8.547 10.136zM49.523 9.291c0 1.249-.364 2.125-1.002 2.698-.648.581-1.657.92-3.088.92h-2.725V5.674h2.725c1.51 0 2.515.305 3.14.844.61.526.95 1.355.95 2.628v.146zM64.05 22.394l-.01-6.77h3.341c1.514 0 2.542.305 3.185.831.624.51.968 1.295.968 2.463v.141c0 1.172-.342 1.973-.948 2.493-.62.532-1.601.842-3.025.842H64.05z" fill="#2A2A2A" stroke="#2A2A2A"/></g><g clip-path="url(#clip3_7214_14802)"><path d="M38 .533h-.5v26.963h6.208v-9.697h2.838c3.114 0 5.636-.748 7.388-2.213 1.764-1.477 2.684-3.63 2.684-6.295V9.15v0c-.002-2.7-.933-4.88-2.717-6.375-1.77-1.484-4.32-2.24-7.468-2.24H38zm30.799 10.198H65.05V5.748h11.304V.533H58.88v26.963h9.822c3.048 0 5.519-.737 7.235-2.185 1.729-1.458 2.628-3.583 2.628-6.214v-.155c0-2.6-.866-4.681-2.571-6.101-1.691-1.409-4.139-2.11-7.196-2.11zm18.238.083V.534h-6.208v26.962h6.208V16.898l8.577 10.416.15.182h7.507l-.681-.82-11.008-13.24 10.48-12.109.715-.827h-7.043l-.15.178-8.547 10.136zM50.523 9.291c0 1.249-.364 2.125-1.002 2.698-.648.581-1.657.92-3.088.92h-2.725V5.674h2.725c1.51 0 2.515.305 3.14.844.61.526.95 1.355.95 2.628v.146zM65.05 22.394l-.01-6.77h3.341c1.514 0 2.542.305 3.185.831.624.51.968 1.295.968 2.463v.141c0 1.172-.342 1.973-.948 2.493-.62.532-1.601.842-3.025.842H65.05z" fill="#2A2A2A" stroke="#2A2A2A"/></g><g clip-path="url(#clip4_7214_14802)" fill="#2A2A2A"><path d="M114 0h10.638c7.659 0 11.223 3.409 11.223 9.359v.16c0 5.873-3.952 9.046-10.866 9.046h-3.009V28h-7.979V0H114zm10.281 13.08c2.583 0 3.951-1.218 3.951-3.524v-.16c0-2.388-1.406-3.362-3.914-3.362h-2.347v7.045h2.31zM139 7.41h7.083v4.12c1.307-3.088 3.483-4.435 6.69-4.397v6.615c-4.314-.116-6.69 1.232-6.69 4.559v9.825H139V7.41zm16 10.784v-.32c0-6.732 4.953-10.98 11.363-10.98 6.372 0 11.286 4.123 11.286 10.777v.32c0 6.81-4.953 10.903-11.325 10.903-6.371 0-11.324-3.929-11.324-10.7zm15.442-.125v-.32c0-3.53-1.388-5.49-4.079-5.49-2.651 0-4.118 1.882-4.118 5.412v.32c0 3.608 1.389 5.569 4.118 5.569 2.652 0 4.079-2 4.079-5.49z"/></g><defs><clipPath id="clip0_7214_14802"><path fill="#fff" d="M0 0h28v28H0z"/></clipPath><clipPath id="clip1_7214_14802"><path fill="#fff" transform="translate(35)" d="M0 0h21v28H0z"/></clipPath><clipPath id="clip2_7214_14802"><path fill="#fff" transform="translate(57)" d="M0 0h22v28H0z"/></clipPath><clipPath id="clip3_7214_14802"><path fill="#fff" transform="translate(80)" d="M0 0h25v28H0z"/></clipPath><clipPath id="clip4_7214_14802"><path fill="#fff" transform="translate(114)" d="M0 0h64v29H0z"/></clipPath></defs></svg>
